src/assets/logo-label.svg

<svg width="110" height="36" viewBox="0 0 110 36" fill="none" xmlns="http://www.w3.org/2000/svg">
<path fill-rule="evenodd" clip-rule="evenodd" d="M1.41576 9.56585V26.594L16.2079 35.1066L31 26.594V9.56585L16.2079 1.05178L1.41576 9.56585Z" fill="url(#paint0_linear_26_30)" stroke="#F2F2F2" stroke-width="1.46" stroke-miterlimit="1.5" stroke-linecap="round" stroke-linejoin="round"/>
<path d="M16.2079 18.0799L1.41576 9.56584" stroke="#F2F2F2" stroke-width="1.46" stroke-miterlimit="1.5" stroke-linecap="round" stroke-linejoin="round"/>
<path d="M16.2079 35.1066V18.0799" stroke="#F2F2F2" stroke-width="1.46" stroke-miterlimit="1.5" stroke-linecap="round" stroke-linejoin="round"/>
<path d="M16.2079 18.0799L31 9.56584" stroke="#F2F2F2" stroke-width="1.46" stroke-miterlimit="1.5" stroke-linecap="round" stroke-linejoin="round"/>
<path d="M48.58 11.44V22.64H54.18V24H47.02V11.44H48.58ZM62.7955 24.24C61.7955 24.24 60.8855 23.98 60.0655 23.46C59.2455 22.94 58.5921 22.2033 58.1055 21.25C57.6188 20.2967 57.3755 19.1667 57.3755 17.86C57.3755 16.7733 57.5321 15.8167 57.8455 14.99C58.1588 14.1633 58.5888 13.47 59.1355 12.91C59.6821 12.35 60.3088 11.93 61.0155 11.65C61.7288 11.3633 62.4821 11.22 63.2755 11.22C64.2555 11.22 65.1155 11.4233 65.8555 11.83C66.5955 12.23 67.2288 12.8667 67.7555 13.74L66.2755 14.26C65.8288 13.7067 65.3488 13.3 64.8355 13.04C64.3288 12.7733 63.7888 12.64 63.2155 12.64C62.4621 12.64 61.7688 12.85 61.1355 13.27C60.5021 13.69 59.9921 14.29 59.6055 15.07C59.2255 15.85 59.0355 16.78 59.0355 17.86C59.0355 18.82 59.1921 19.6733 59.5055 20.42C59.8188 21.16 60.2621 21.7433 60.8355 22.17C61.4155 22.59 62.1021 22.8 62.8955 22.8C63.5021 22.8 64.0455 22.66 64.5255 22.38C65.0121 22.1 65.3955 21.68 65.6755 21.12C65.9555 20.5533 66.0955 19.84 66.0955 18.98H66.5755C66.5755 20.0467 66.4488 20.9733 66.1955 21.76C65.9421 22.5467 65.5355 23.1567 64.9755 23.59C64.4221 24.0233 63.6955 24.24 62.7955 24.24ZM66.3755 24L66.0955 21.04V18.94L62.9355 18.84V17.78H67.6155V24H66.3755ZM77.2666 24.24C76.4266 24.24 75.6566 24.09 74.9566 23.79C74.2566 23.4833 73.6932 23.0333 73.2666 22.44C72.8399 21.8467 72.6199 21.1133 72.6066 20.24H74.1266C74.1266 20.8267 74.2699 21.31 74.5566 21.69C74.8432 22.0633 75.2232 22.3433 75.6966 22.53C76.1699 22.71 76.6866 22.8 77.2466 22.8C77.8532 22.8 78.3799 22.7033 78.8266 22.51C79.2732 22.3167 79.6166 22.0633 79.8566 21.75C80.1032 21.43 80.2266 21.08 80.2266 20.7C80.2266 20.1667 80.0632 19.7367 79.7366 19.41C79.4099 19.0767 78.9266 18.8067 78.2866 18.6L76.0666 17.82C75.0266 17.4467 74.2399 17.02 73.7066 16.54C73.1732 16.06 72.9066 15.3867 72.9066 14.52C72.9066 13.5467 73.2799 12.7533 74.0266 12.14C74.7799 11.5267 75.8466 11.22 77.2266 11.22C78.5066 11.22 79.5066 11.5167 80.2266 12.11C80.9466 12.6967 81.3599 13.4867 81.4666 14.48H79.9266C79.8266 13.9 79.5532 13.45 79.1066 13.13C78.6666 12.8033 78.0399 12.64 77.2266 12.64C76.3999 12.64 75.7566 12.8233 75.2966 13.19C74.8366 13.5567 74.6066 14.02 74.6066 14.58C74.6066 15.04 74.7499 15.4067 75.0366 15.68C75.3299 15.9467 75.7866 16.1867 76.4066 16.4L79.0066 17.3C79.9066 17.6 80.6166 18.02 81.1366 18.56C81.6632 19.1 81.9266 19.8 81.9266 20.66C81.9266 21.3267 81.7466 21.93 81.3866 22.47C81.0332 23.01 80.5099 23.44 79.8166 23.76C79.1232 24.08 78.2732 24.24 77.2666 24.24ZM84.9691 11.44H86.8491L90.4491 17.54H90.0491L93.7091 11.44H95.5691L91.0291 18.84V24H89.4491V18.84L84.9691 11.44ZM103.239 24.24C102.399 24.24 101.629 24.09 100.929 23.79C100.229 23.4833 99.6659 23.0333 99.2392 22.44C98.8126 21.8467 98.5926 21.1133 98.5792 20.24H100.099C100.099 20.8267 100.243 21.31 100.529 21.69C100.816 22.0633 101.196 22.3433 101.669 22.53C102.143 22.71 102.659 22.8 103.219 22.8C103.826 22.8 104.353 22.7033 104.799 22.51C105.246 22.3167 105.589 22.0633 105.829 21.75C106.076 21.43 106.199 21.08 106.199 20.7C106.199 20.1667 106.036 19.7367 105.709 19.41C105.383 19.0767 104.899 18.8067 104.259 18.6L102.039 17.82C100.999 17.4467 100.213 17.02 99.6792 16.54C99.1459 16.06 98.8792 15.3867 98.8792 14.52C98.8792 13.5467 99.2526 12.7533 99.9992 12.14C100.753 11.5267 101.819 11.22 103.199 11.22C104.479 11.22 105.479 11.5167 106.199 12.11C106.919 12.6967 107.333 13.4867 107.439 14.48H105.899C105.799 13.9 105.526 13.45 105.079 13.13C104.639 12.8033 104.013 12.64 103.199 12.64C102.373 12.64 101.729 12.8233 101.269 13.19C100.809 13.5567 100.579 14.02 100.579 14.58C100.579 15.04 100.723 15.4067 101.009 15.68C101.303 15.9467 101.759 16.1867 102.379 16.4L104.979 17.3C105.879 17.6 106.589 18.02 107.109 18.56C107.636 19.1 107.899 19.8 107.899 20.66C107.899 21.3267 107.719 21.93 107.359 22.47C107.006 23.01 106.483 23.44 105.789 23.76C105.096 24.08 104.246 24.24 103.239 24.24Z" fill="white"/>
<defs>
<linearGradient id="paint0_linear_26_30" x1="8.81215" y1="5.30916" x2="23.5353" y2="30.8899" gradientUnits="userSpaceOnUse">
<stop stop-color="#AFEADC"/>
<stop offset="1" stop-color="#FCAEBB"/>
</linearGradient>
</defs>
</svg>

<svg xmlns="http://www.w3.org/2000/svg" width="110" height="36" fill="none"><path fill="url(#a)" fill-rule="evenodd" stroke="#F2F2F2" stroke-linecap="round" stroke-linejoin="round" stroke-miterlimit="1.5" stroke-width="1.46" d="M1.416 9.566v17.028l14.792 8.513L31 26.594V9.566L16.208 1.052z" clip-rule="evenodd"/><path stroke="#F2F2F2" stroke-linecap="round" stroke-linejoin="round" stroke-miterlimit="1.5" stroke-width="1.46" d="M16.208 18.08 1.416 9.566m14.792 25.541V18.08m0 0L31 9.566"/><path fill="#fff" d="M48.58 11.44v11.2h5.6V24h-7.16V11.44zm14.215 12.8q-1.5 0-2.73-.78t-1.96-2.21-.73-3.39q0-1.63.47-2.87.471-1.24 1.29-2.08a5.4 5.4 0 0 1 1.88-1.26 6 6 0 0 1 2.26-.43q1.47 0 2.58.61 1.11.6 1.9 1.91l-1.48.52q-.669-.83-1.44-1.22a3.4 3.4 0 0 0-1.62-.4q-1.13 0-2.08.63t-1.53 1.8q-.57 1.17-.57 2.79 0 1.44.47 2.56.47 1.11 1.33 1.75.87.63 2.06.63.91 0 1.63-.42.73-.42 1.15-1.26.42-.85.42-2.14h.48q0 1.6-.38 2.78t-1.22 1.83q-.83.65-2.18.65m3.58-.24-.28-2.96v-2.1l-3.16-.1v-1.06h4.68V24zm10.892.24q-1.26 0-2.31-.45a4 4 0 0 1-1.69-1.35q-.64-.89-.66-2.2h1.52q0 .88.43 1.45.429.56 1.14.84.71.27 1.55.27.91 0 1.58-.29t1.03-.76q.37-.48.37-1.05 0-.8-.49-1.29-.49-.5-1.45-.81l-2.22-.78q-1.56-.56-2.36-1.28t-.8-2.02q0-1.46 1.12-2.38 1.13-.92 3.2-.92 1.92 0 3 .89 1.08.88 1.24 2.37h-1.54q-.15-.87-.82-1.35-.66-.49-1.88-.49-1.24 0-1.93.55t-.69 1.39q0 .69.43 1.1.44.4 1.37.72l2.6.9q1.35.45 2.13 1.26.79.81.79 2.1 0 1-.54 1.81-.53.81-1.57 1.29t-2.55.48m7.702-12.8h1.88l3.6 6.1h-.4l3.66-6.1h1.86l-4.54 7.4V24h-1.58v-5.16zm18.27 12.8q-1.26 0-2.31-.45a4 4 0 0 1-1.69-1.35q-.639-.89-.66-2.2h1.52q0 .88.43 1.45.43.56 1.14.84.71.27 1.55.27.91 0 1.58-.29t1.03-.76q.37-.48.37-1.05 0-.8-.49-1.29-.49-.5-1.45-.81l-2.22-.78q-1.56-.56-2.36-1.28t-.8-2.02q0-1.46 1.12-2.38 1.13-.92 3.2-.92 1.92 0 3 .89 1.08.88 1.24 2.37h-1.54q-.15-.87-.82-1.35-.66-.49-1.88-.49-1.24 0-1.93.55t-.69 1.39q0 .69.43 1.1.44.4 1.37.72l2.6.9q1.35.45 2.13 1.26.79.81.79 2.1 0 1-.54 1.81-.53.81-1.57 1.29t-2.55.48"/><defs><linearGradient id="a" x1="8.812" x2="23.535" y1="5.309" y2="30.89" gradientUnits="userSpaceOnUse"><stop stop-color="#AFEADC"/><stop offset="1" stop-color="#FCAEBB"/></linearGradient></defs></svg>
